**kern	**silbe	**kern	**silbe	**harmony	**phrase	**leadinstrument	**rhyme	**timestamp	**harte
*ICvox	*	*ICvox	*	*M4/4	*	*	*	*	*M4/4
*VRlead	*	*VRharmonize	*	*	*	*	*	*	*
*Hstimme	*	*Nstimme	*	*	*	*	*	*	*
*f:	*	*f:	*	*f:	*f:	*f:	*	*f:	*f:
*M4/4	*	*M4/4	*	*	*	*	*	*	*
*clefG2	*	*clefG2	*	*	*	*	*	*	*
r;	.	r;	.	1r;	.	r	.	0	N.C.
=1	=1	=1	=1	=1	=1	=1	=1	=1	=1
*>Letter>A	*>Letter>A	*>Letter>A	*>Letter>A	*>Letter>A	*>Letter>A	*>Letter>A	*>Letter>A	*>Letter>A	*>Letter>A
*>Label>Intro	*>Label>Intro	*>Label>Intro	*>Label>Intro	*>Label>Intro	*>Label>Intro	*>Label>Intro	*>Label>Intro	*>Label>Intro	*>Label>Intro
1r	.	1r	.	1N	newline	r	.	0.441	N.C.
=2	=2	=2	=2	=2	=2	=2	=2	=2	=2
1r	.	1r	.	2.N	.	r	.	1.983	N.C.
.	.	.	.	4A-M	.	r	.	3.14	A-:maj
=3	=3	=3	=3	=3	=3	=3	=3	=3	=3
1r	.	1r	.	1Fm	.	r	.	3.525	F:min
=4	=4	=4	=4	=4	=4	=4	=4	=4	=4
1r	.	1r	.	2.FM	.	r	.	5.067	F:maj
.	.	.	.	4A-M	.	r	.	6.224	A-:maj
=5	=5	=5	=5	=5	=5	=5	=5	=5	=5
1r	.	1r	.	1Fm	newline	r	.	6.609	F:min
=6	=6	=6	=6	=6	=6	=6	=6	=6	=6
1r	.	1r	.	2.FM	.	r	.	8.109	F:maj
.	.	.	.	4A-M	.	r	.	9.234	A-:maj
=7	=7	=7	=7	=7	=7	=7	=7	=7	=7
1r	.	1r	.	1Fm	.	r	.	9.609	F:min
=8	=8	=8	=8	=8	=8	=8	=8	=8	=8
1r	.	1r	.	1Fm	.	r	.	11.109	F:min
=9	=9	=9	=9	=9	=9	=9	=9	=9	=9
*>Letter>B	*>Letter>B	*>Letter>B	*>Letter>B	*>Letter>B	*>Letter>B	*>Letter>B	*>Letter>B	*>Letter>B	*>Letter>B
*>Label>Verse	*>Label>Verse	*>Label>Verse	*>Label>Verse	*>Label>Verse	*>Label>Verse	*>Label>Verse	*>Label>Verse	*>Label>Verse	*>Label>Verse
4r	.	1r	.	1Fm	newline	voice	.	12.609	F:5
8a-	Your	.	.	.	.	.	.	.	.
[8a-	love	.	.	.	.	.	.	.	.
8a-]	_	.	.	.	.	.	.	.	.
8a-	is	.	.	.	.	.	.	.	.
8a-	like	.	.	.	.	.	.	.	.
8a-	a	.	.	.	.	.	.	.	.
=10	=10	=10	=10	=10	=10	=10	=10	=10	=10
4f	ti-	1r	.	1E-M	.	voice	.	14.143	E-:5
8e-	-dal	.	.	.	.	.	.	.	.
[8e-	wave	.	.	.	.	.	.	.	.
8e-]	_	.	.	.	.	.	.	.	.
4.f	_	.	.	.	.	.	.	.	.
=11	=11	=11	=11	=11	=11	=11	=11	=11	=11
8r	.	1r	.	1D-M	.	voice	.	15.677	D-:5
8f	spin-	.	.	.	.	.	.	.	.
8f	-ning	.	.	.	.	.	.	.	.
[8a-	o-	.	.	.	.	.	.	.	.
8a-]	_	.	.	.	.	.	.	.	.
8b-	-ver	.	.	.	.	.	.	.	.
8b-	my	.	.	.	.	.	.	.	.
[8b-	head	.	.	.	.	.	A	.	.
=12	=12	=12	=12	=12	=12	=12	=12	=12	=12
8b-]	_	1r	.	2B-m	.	voice	.	17.211	B-:5
8a-	_	.	.	.	.	.	.	.	.
2f	_	.	.	.	.	.	.	.	.
.	.	.	.	4CM	.	voice	.	17.978	C:maj
4r	.	.	.	4E-M	.	voice	.	18.361	E-:maj
=13	=13	=13	=13	=13	=13	=13	=13	=13	=13
8r	.	1r	.	1Fm	newline	voice	.	18.745	F:5
8a-	Drow-	.	.	.	.	.	.	.	.
8a-	-in'	.	.	.	.	.	.	.	.
[8a-	me	.	.	.	.	.	.	.	.
8a-]	_	.	.	.	.	.	.	.	.
8a-	in	.	.	.	.	.	.	.	.
8a-	your	.	.	.	.	.	.	.	.
[8f	pro-	.	.	.	.	.	.	.	.
=14	=14	=14	=14	=14	=14	=14	=14	=14	=14
8f]	_	1r	.	1E-M	.	voice	.	20.288	E-:5
4e-	-mis-	.	.	.	.	.	.	.	.
[8e-	-es	.	.	.	.	.	.	.	.
8e-]	_	.	.	.	.	.	.	.	.
4.f	_	.	.	.	.	.	.	.	.
=15	=15	=15	=15	=15	=15	=15	=15	=15	=15
8r	.	1r	.	1D-M	.	voice	.	21.831	D-:5
8f	be-	.	.	.	.	.	.	.	.
8f	-tter	.	.	.	.	.	.	.	.
[8a-	left	.	.	.	.	.	.	.	.
8a-]	_	.	.	.	.	.	.	.	.
4b-	un-	.	.	.	.	.	.	.	.
[8b-	-said	.	.	.	.	.	A	.	.
=16	=16	=16	=16	=16	=16	=16	=16	=16	=16
8b-]	_	1r	.	2B-m	.	voice	.	23.374	B-:5
8a-	_	.	.	.	.	.	.	.	.
2f	_	.	.	.	.	.	.	.	.
.	.	.	.	4CM	.	voice	.	24.145	C:maj
4r	.	.	.	4E-M	.	voice	.	24.531	E-:maj
=17	=17	=17	=17	=17	=17	=17	=17	=17	=17
8r	.	1r	.	2Fm	newline	voice	.	24.917	F:min
8cc	You're	.	.	.	.	.	.	.	.
8cc	the	.	.	.	.	.	.	.	.
16cc	right	.	.	.	.	.	.	.	.
[16ee-	_	.	.	.	.	.	.	.	.
8ee-]	_	.	.	2E-M	.	voice	.	25.691	E-:maj
8cc	kind	.	.	.	.	.	.	.	.
8b-	of	.	.	.	.	.	.	.	.
[8b-	sin-	.	.	.	.	.	(B	.	.
=18	=18	=18	=18	=18	=18	=18	=18	=18	=18
8b-]	_	1r	.	1D-M	.	voice	.	26.466	D-:maj
8a-	-ner	.	.	.	.	.	b	.	.
4r	.	.	.	.	.	.	.	.	.
8r	.	.	.	.	.	.	.	.	.
8f	to	.	.	.	.	.	.	.	.
8a-	re-	.	.	.	.	.	.	.	.
[8b-	-lease	.	.	.	.	.	.	.	.
=19	=19	=19	=19	=19	=19	=19	=19	=19	=19
8b-]	_	1r	.	1B-M	.	voice	.	28.015	B-:maj
4b-	my	.	.	.	.	.	.	.	.
[8b-	in-	.	.	.	.	.	.	.	.
8b-]	_	.	.	.	.	.	.	.	.
4a-	-ner	.	.	.	.	.	.	.	.
[8b-	fan-	.	.	.	.	.	.	.	.
=20	=20	=20	=20	=20	=20	=20	=20	=20	=20
8b-]	_	1r	.	1CM	.	voice	.	29.565	C:maj
4cc	-ta-	.	.	.	.	.	(c	.	.
[8cc	-sy	.	.	.	.	.	C)	.	.
2cc]	_	.	.	.	.	.	.	.	.
=21	=21	=21	=21	=21	=21	=21	=21	=21	=21
8r	.	1r	.	2Fm	newline	voice	.	31.114	F:min
8cc	The	.	.	.	.	.	.	.	.
8cc	in-	.	.	.	.	.	.	.	.
[8ee-	-vin-	.	.	.	.	.	.	.	.
8ee-]	_	.	.	2E-M	.	voice	.	31.897	E-:maj
8cc	-ci-	.	.	.	.	.	.	.	.
8b-	-ble	.	.	.	.	.	.	.	.
[8b-	win-	.	.	.	.	.	(B	.	.
=22	=22	=22	=22	=22	=22	=22	=22	=22	=22
8b-]	_	1r	.	1D-M	.	voice	.	32.68	D-:maj
4.a-	-ner	.	.	.	.	.	b)	.	.
8r	.	.	.	.	.	.	.	.	.
8f	and	.	.	.	.	.	.	.	.
8a-	you	.	.	.	.	.	.	.	.
[8b-	know	.	.	.	.	.	.	.	.
=23	=23	=23	=23	=23	=23	=23	=23	=23	=23
8b-]	_	1r	.	1B-M	.	voice	.	34.247	B-:maj
4b-	that	.	.	.	.	.	.	.	.
[8b-	you	.	.	.	.	.	.	.	.
8b-]	_	.	.	.	.	.	.	.	.
8a-	were	.	.	.	.	.	.	.	.
8r	.	.	.	.	.	.	.	.	.
[8b-	born	.	.	.	.	.	.	.	.
=24	=24	=24	=24	=24	=24	=24	=24	=24	=24
8b-]	_	1r	.	1Cm	.	voice	.	35.813	C:5
4cc	to	.	.	.	.	.	(c	.	.
[8cc	be	.	.	.	.	.	C)	.	.
2cc_	_	.	.	.	.	.	.	.	.
=25	=25	=25	=25	=25	=25	=25	=25	=25	=25
2cc]	_	1r	.	1CM	.	voice	.	37.38	C:maj
4r	.	.	.	.	.	.	.	.	.
8e-	You're	.	.	.	.	.	.	.	.
[8f	a	.	.	.	.	.	.	.	.
=26	=26	=26	=26	=26	=26	=26	=26	=26	=26
*>Letter>C	*>Letter>C	*>Letter>C	*>Letter>C	*>Letter>C	*>Letter>C	*>Letter>C	*>Letter>C	*>Letter>C	*>Letter>C
*>Label>Chorus	*>Label>Chorus	*>Label>Chorus	*>Label>Chorus	*>Label>Chorus	*>Label>Chorus	*>Label>Chorus	*>Label>Chorus	*>Label>Chorus	*>Label>Chorus
8f]	_	4r	.	2.Fm	newline	voice	.	38.946	F:min
8r	.	.	.	.	.	.	.	.	.
4a-	heart-	4cc	heart-	.	.	.	.	.	.
8g	-break-	8b-	-break-	.	.	.	(D	.	.
4.f	-er	4.a-	-er	.	.	.	d)	.	.
.	.	.	.	4Gm	.	voice	.	40.078	G:min
=27	=27	=27	=27	=27	=27	=27	=27	=27	=27
4r	.	4r	.	1A-M	.	voice	.	40.455	A-:maj
4a-	Dream	4cc	Dream	.	.	.	.	.	.
8g	ma-	8b-	ma-	.	.	.	(D	.	.
4.f	-ker	4.a-	-ker	.	.	.	d)	.	.
=28	=28	=28	=28	=28	=28	=28	=28	=28	=28
4r	.	1r	.	2.B-M	.	voice	.	41.964	B-:maj
4a-	Love	.	.	.	.	.	.	.	.
8g	ta-	.	.	.	.	.	(D	.	.
8f	-ker	.	.	.	.	.	d)	.	.
8f	Don't	.	.	4CM	.	voice	.	43.096	C:maj
8f	you	.	.	.	.	.	.	.	.
=29	=29	=29	=29	=29	=29	=29	=29	=29	=29
8e-	mess	1r	.	2.D-M	.	voice	.	43.474	D-:maj
8f	a-	.	.	.	.	.	.	.	.
8f	-round	.	.	.	.	.	.	.	.
8f	with	.	.	.	.	.	.	.	.
4f	me	.	.	.	.	.	C	.	.
8e-	You're	.	.	4CM	.	voice	.	44.606	C:maj
[8f	a	.	.	.	.	.	.	.	.
=30	=30	=30	=30	=30	=30	=30	=30	=30	=30
8f]	_	4r	.	2.Fm	newline	voice	.	44.983	F:min
8r	.	.	.	.	.	.	.	.	.
4a-	heart-	4cc	heart-	.	.	.	.	.	.
8g	-break-	8b-	-break-	.	.	.	(D	.	.
4.f	-er	4.a-	-er	.	.	.	d)	.	.
.	.	.	.	4Gm	.	voice	.	46.115	G:min
=31	=31	=31	=31	=31	=31	=31	=31	=31	=31
4r	.	4r	.	1A-M	.	voice	.	46.492	A-:maj
4a-	Dream	4cc	Dream	.	.	.	.	.	.
8g	ma-	8b-	ma-	.	.	.	(D	.	.
4.f	-ker	4.a-	-ker	.	.	.	d)	.	.
=32	=32	=32	=32	=32	=32	=32	=32	=32	=32
4r	.	1r	.	2.B-M	.	voice	.	48.001	B-:maj
4a-	Love	.	.	.	.	.	.	.	.
8g	ta-	.	.	.	.	.	(D	.	.
8f	-ker	.	.	.	.	.	d)	.	.
8f	Don't	.	.	4CM	.	voice	.	49.133	C:maj
8f	you	.	.	.	.	.	.	.	.
=33	=33	=33	=33	=33	=33	=33	=33	=33	=33
8dd-	mess	1r	.	2.D-M	.	voice	.	49.511	D-:maj
8dd-	a-	.	.	.	.	.	.	.	.
[4dd-	-round	.	.	.	.	.	.	.	.
8dd-]	_	.	.	.	.	.	.	.	.
8cc	no!	.	.	.	.	.	.	.	.
8cc	no!	.	.	4CM	.	voice	.	50.643	C:maj
[8cc	no!	.	.	.	.	.	.	.	.
=34	=34	=34	=34	=34	=34	=34	=34	=34	=34
4cc]	_	1r	.	1Fm	newline	voice	.	51.02	F:min
4r	.	.	.	.	.	.	.	.	.
2r	.	.	.	.	.	.	.	.	.
=35	=35	=35	=35	=35	=35	=35	=35	=35	=35
1r	.	1r	.	2.Fm	.	voice	.	52.526	F:min
.	.	.	.	4A-M	.	voice	.	53.656	A-:maj
=36	=36	=36	=36	=36	=36	=36	=36	=36	=36
1r	.	1r	.	1Fm	.	voice	.	54.033	F:min
=37	=37	=37	=37	=37	=37	=37	=37	=37	=37
1r	.	1r	.	2.Fm	.	voice	.	55.539	F:min
.	.	.	.	4A-M	.	voice	.	56.669	A-:maj
=38	=38	=38	=38	=38	=38	=38	=38	=38	=38
*>Letter>B	*>Letter>B	*>Letter>B	*>Letter>B	*>Letter>B	*>Letter>B	*>Letter>B	*>Letter>B	*>Letter>B	*>Letter>B
*>Label>Verse	*>Label>Verse	*>Label>Verse	*>Label>Verse	*>Label>Verse	*>Label>Verse	*>Label>Verse	*>Label>Verse	*>Label>Verse	*>Label>Verse
4r	.	1r	.	1Fm	newline	voice	.	57.045	F:5
8a-	Your	.	.	.	.	.	.	.	.
[8a-	love	.	.	.	.	.	.	.	.
8a-]	_	.	.	.	.	.	.	.	.
8a-	has	.	.	.	.	.	.	.	.
8a-	set	.	.	.	.	.	.	.	.
8a-	my	.	.	.	.	.	.	.	.
=39	=39	=39	=39	=39	=39	=39	=39	=39	=39
4f	soul	1r	.	1E-M	.	voice	.	58.586	E-:5
8e-	on	.	.	.	.	.	.	.	.
[8e-	fire	.	.	.	.	.	E	.	.
8e-]	_	.	.	.	.	.	.	.	.
4.f	_	.	.	.	.	.	.	.	.
=40	=40	=40	=40	=40	=40	=40	=40	=40	=40
8r	.	1r	.	1D-M	.	voice	.	60.127	D-:5
8f	Burn-	.	.	.	.	.	.	.	.
8f	-in'	.	.	.	.	.	.	.	.
[8a-	out	.	.	.	.	.	.	.	.
8a-]	_	.	.	.	.	.	.	.	.
8b-	of	.	.	.	.	.	.	.	.
8b-	con-	.	.	.	.	.	.	.	.
[8b-	-trol	.	.	.	.	.	F	.	.
=41	=41	=41	=41	=41	=41	=41	=41	=41	=41
8b-]	_	1r	.	2B-m	.	voice	.	61.668	B-:5
8a-	_	.	.	.	.	.	.	.	.
4f	_	.	.	.	.	.	.	.	.
2r	.	.	.	4CM	.	voice	.	62.439	C:maj
.	.	.	.	4E-M	.	voice	.	62.824	E-:maj
=42	=42	=42	=42	=42	=42	=42	=42	=42	=42
4r	.	1r	.	1Fm	newline	voice	.	63.209	F:5
8a-	You	.	.	.	.	.	.	.	.
[8a-	taught	.	.	.	.	.	.	.	.
8a-]	_	.	.	.	.	.	.	.	.
8a-	me	.	.	.	.	.	.	.	.
8a-	the	.	.	.	.	.	.	.	.
[8f	ways	.	.	.	.	.	.	.	.
=43	=43	=43	=43	=43	=43	=43	=43	=43	=43
8f]	_	1r	.	1E-M	.	voice	.	64.756	E-:5
8e-	of	.	.	.	.	.	.	.	.
8e-	de-	.	.	.	.	.	.	.	.
[8e-	-sire	.	.	.	.	.	E	.	.
8e-]	_	.	.	.	.	.	.	.	.
4.f	_	.	.	.	.	.	.	.	.
=44	=44	=44	=44	=44	=44	=44	=44	=44	=44
8r	.	1r	.	1D-M	.	voice	.	66.303	D-:5
8f	Now	.	.	.	.	.	.	.	.
8f	it's	.	.	.	.	.	.	.	.
[8a-	ta-	.	.	.	.	.	.	.	.
8a-]	_	.	.	.	.	.	.	.	.
8b-	-kin'	.	.	.	.	.	.	.	.
8b-	it's	.	.	.	.	.	.	.	.
[8b-	toll	.	.	.	.	.	F	.	.
=45	=45	=45	=45	=45	=45	=45	=45	=45	=45
8b-]	_	1r	.	2B-m	.	voice	.	67.85	B-:5
8a-	_	.	.	.	.	.	.	.	.
4f	_	.	.	.	.	.	.	.	.
2r	.	.	.	4CM	.	voice	.	68.623	C:maj
.	.	.	.	4E-M	.	voice	.	69.01	E-:maj
=46	=46	=46	=46	=46	=46	=46	=46	=46	=46
8r	.	1r	.	2Fm	newline	voice	.	69.396	F:min
8cc	You're	.	.	.	.	.	.	.	.
8cc	the	.	.	.	.	.	.	.	.
4ee-	right	.	.	.	.	.	.	.	.
.	.	.	.	2E-M	.	voice	.	70.179	E-:maj
8cc	kind	.	.	.	.	.	.	.	.
8b-	of	.	.	.	.	.	.	.	.
[8b-	sin-	.	.	.	.	.	(B	.	.
=47	=47	=47	=47	=47	=47	=47	=47	=47	=47
8b-]	_	1r	.	1D-M	.	voice	.	70.961	D-:maj
[4.a-	-ner	.	.	.	.	.	b)	.	.
8a-]	_	.	.	.	.	.	.	.	.
8f	to	.	.	.	.	.	.	.	.
8a-	re-	.	.	.	.	.	.	.	.
[8b-	-lease	.	.	.	.	.	.	.	.
=48	=48	=48	=48	=48	=48	=48	=48	=48	=48
8b-]	_	1r	.	1B-M	.	voice	.	72.526	B-:maj
4b-	my	.	.	.	.	.	.	.	.
[8b-	in-	.	.	.	.	.	.	.	.
8b-]	_	.	.	.	.	.	.	.	.
4a-	-ner	.	.	.	.	.	.	.	.
[8b-	fan-	.	.	.	.	.	.	.	.
=49	=49	=49	=49	=49	=49	=49	=49	=49	=49
8b-]	_	1r	.	1CM	.	voice	.	74.091	C:maj
4cc	-ta-	.	.	.	.	.	(c	.	.
[8cc	-sy	.	.	.	.	.	C)	.	.
4.cc]	_	.	.	.	.	.	.	.	.
8r	.	.	.	.	.	.	.	.	.
=50	=50	=50	=50	=50	=50	=50	=50	=50	=50
8r	.	1r	.	2Fm	newline	voice	.	75.655	F:min
8cc	The	.	.	.	.	.	.	.	.
8cc	in-	.	.	.	.	.	.	.	.
[8ee-	-vin-	.	.	.	.	.	.	.	.
8ee-]	_	.	.	2E-M	.	voice	.	76.44	E-:maj
16ee-	-ci-	.	.	.	.	.	.	.	.
16cc	_	.	.	.	.	.	.	.	.
8b-	-ble	.	.	.	.	.	.	.	.
[8b-	win-	.	.	.	.	.	(B	.	.
=51	=51	=51	=51	=51	=51	=51	=51	=51	=51
8b-]	_	1r	.	1D-M	.	voice	.	77.225	D-:maj
4.a-	-ner	.	.	.	.	.	b)	.	.
8r	.	.	.	.	.	.	.	.	.
8f	and	.	.	.	.	.	.	.	.
8a-	you	.	.	.	.	.	.	.	.
[8b-	know	.	.	.	.	.	.	.	.
=52	=52	=52	=52	=52	=52	=52	=52	=52	=52
8b-]	_	1r	.	1B-M	.	voice	.	78.794	B-:maj
4b-	that	.	.	.	.	.	.	.	.
[8b-	you	.	.	.	.	.	.	.	.
8b-]	_	.	.	.	.	.	.	.	.
8a-	were	.	.	.	.	.	.	.	.
8r	.	.	.	.	.	.	.	.	.
[8b-	born	.	.	.	.	.	.	.	.
=53	=53	=53	=53	=53	=53	=53	=53	=53	=53
8b-]	_	1r	.	1Cm	.	voice	.	80.363	C:5
4cc	to	.	.	.	.	.	(c	.	.
[8cc	be	.	.	.	.	.	C)	.	.
2cc_	_	.	.	.	.	.	.	.	.
=54	=54	=54	=54	=54	=54	=54	=54	=54	=54
2cc]	_	1r	.	1CM	.	voice	.	81.932	C:maj
4r	.	.	.	.	.	.	.	.	.
8e-	You're	.	.	.	.	.	.	.	.
[8f	a	.	.	.	.	.	.	.	.
=55	=55	=55	=55	=55	=55	=55	=55	=55	=55
*>Letter>C2	*>Letter>C2	*>Letter>C2	*>Letter>C2	*>Letter>C2	*>Letter>C2	*>Letter>C2	*>Letter>C2	*>Letter>C2	*>Letter>C2
*>Label>Chorus	*>Label>Chorus	*>Label>Chorus	*>Label>Chorus	*>Label>Chorus	*>Label>Chorus	*>Label>Chorus	*>Label>Chorus	*>Label>Chorus	*>Label>Chorus
8f]	_	4r	.	2.Fm	newline	voice	.	83.502	F:min
8r	.	.	.	.	.	.	.	.	.
4a-	heart-	4cc	heart-	.	.	.	.	.	.
8g	-break-	8b-	-break-	.	.	.	(D	.	.
4.f	-er	4.a-	-er	.	.	.	d)	.	.
.	.	.	.	4Gm	.	voice	.	84.644	G:min
=56	=56	=56	=56	=56	=56	=56	=56	=56	=56
4r	.	4r	.	1A-M	.	voice	.	85.025	A-:maj
4a-	Dream	4cc	Dream	.	.	.	.	.	.
8g	ma-	8b-	ma-	.	.	.	(D	.	.
4.f	-ker	4.a-	-ker	.	.	.	d)	.	.
=57	=57	=57	=57	=57	=57	=57	=57	=57	=57
4r	.	1r	.	2.B-M	.	voice	.	86.548	B-:maj
4a-	Love	.	.	.	.	.	.	.	.
8g	ta-	.	.	.	.	.	(D	.	.
8f	-ker	.	.	.	.	.	d)	.	.
8f	Don't	.	.	4CM	.	voice	.	87.69	C:maj
8f	you	.	.	.	.	.	.	.	.
=58	=58	=58	=58	=58	=58	=58	=58	=58	=58
8e-	mess	1r	.	2.D-M	.	voice	.	88.071	D-:maj
8f	a-	.	.	.	.	.	.	.	.
8f	-round	.	.	.	.	.	.	.	.
8f	with	.	.	.	.	.	.	.	.
4f	me	.	.	.	.	.	C	.	.
8e-	You're	.	.	4CM	.	voice	.	89.213	C:maj
[8f	a	.	.	.	.	.	.	.	.
=59	=59	=59	=59	=59	=59	=59	=59	=59	=59
8f]	_	4r	.	2.Fm	newline	voice	.	89.594	F:min
8r	.	.	.	.	.	.	.	.	.
4a-	heart-	4cc	heart-	.	.	.	.	.	.
8g	-break-	8b-	-break-	.	.	.	(D	.	.
4.f	-er	4.a-	-er	.	.	.	d)	.	.
.	.	.	.	4Gm	.	voice	.	90.728	G:min
=60	=60	=60	=60	=60	=60	=60	=60	=60	=60
4r	.	4r	.	1A-M	.	voice	.	91.106	A-:maj
4a-	Dream	4cc	Dream	.	.	.	.	.	.
8g	ma-	8b-	ma-	.	.	.	(D	.	.
4.f	-ker	4.a-	-ker	.	.	.	d)	.	.
=61	=61	=61	=61	=61	=61	=61	=61	=61	=61
4r	.	1r	.	2.B-M	.	voice	.	92.618	B-:maj
4a-	Love	.	.	.	.	.	.	.	.
8g	ta-	.	.	.	.	.	(D	.	.
8f	-ker	.	.	.	.	.	d)	.	.
8f	Don't	.	.	4CM	.	voice	.	93.753	C:maj
8f	you	.	.	.	.	.	.	.	.
=62	=62	=62	=62	=62	=62	=62	=62	=62	=62
8dd-	mess	1r	.	2.D-M	.	voice	.	94.131	D-:maj
8dd-	a-	.	.	.	.	.	.	.	.
[4dd-	-round	.	.	.	.	.	.	.	.
8dd-]	_	.	.	.	.	.	.	.	.
8cc	no!	.	.	.	.	.	.	.	.
8cc	no!	.	.	4CM	.	voice	.	95.265	C:maj
[8cc	no!	.	.	.	.	.	.	.	.
=63	=63	=63	=63	=63	=63	=63	=63	=63	=63
4cc]	_	1r	.	1Fm	newline	voice	.	95.643	F:min
4r	.	.	.	.	.	.	.	.	.
2r	.	.	.	.	.	.	.	.	.
=64	=64	=64	=64	=64	=64	=64	=64	=64	=64
1r	.	1r	.	2.Fm	.	voice	.	97.168	F:min
.	.	.	.	4A-M	.	voice	.	98.312	A-:maj
=65	=65	=65	=65	=65	=65	=65	=65	=65	=65
1r	.	1r	.	1Fm	.	voice	.	98.693	F:min
=66	=66	=66	=66	=66	=66	=66	=66	=66	=66
1r	.	1r	.	2.Fm	.	voice	.	100.218	F:min
.	.	.	.	4A-M	.	voice	.	101.361	A-:maj
=67	=67	=67	=67	=67	=67	=67	=67	=67	=67
*>Letter>D	*>Letter>D	*>Letter>D	*>Letter>D	*>Letter>D	*>Letter>D	*>Letter>D	*>Letter>D	*>Letter>D	*>Letter>D
*>Label>Bridge	*>Label>Bridge	*>Label>Bridge	*>Label>Bridge	*>Label>Bridge	*>Label>Bridge	*>Label>Bridge	*>Label>Bridge	*>Label>Bridge	*>Label>Bridge
1r	.	1r	.	2.E-M	newline	guitar	.	101.743	E-:maj
.	.	.	.	4FM	.	guitar	.	102.882	F:maj
=68	=68	=68	=68	=68	=68	=68	=68	=68	=68
1r	.	1r	.	2.CM	.	guitar	.	103.261	C:maj
.	.	.	.	4B-M	.	guitar	.	104.4	B-:maj
=69	=69	=69	=69	=69	=69	=69	=69	=69	=69
1r	.	1r	.	2A-M	.	guitar	.	104.78	A-:maj
.	.	.	.	2G-M	.	guitar	.	105.539	G-:maj
=70	=70	=70	=70	=70	=70	=70	=70	=70	=70
1r	.	1r	.	4Fm	.	guitar	.	106.298	F:min
.	.	.	.	2E-M	.	guitar	.	106.678	E-:maj
.	.	.	.	4DM	.	guitar	.	107.437	D:maj
=71	=71	=71	=71	=71	=71	=71	=71	=71	=71
1r	.	1r	.	2.E-M	newline	guitar	.	107.817	E-:maj
.	.	.	.	4FM	.	guitar	.	108.941	F:maj
=72	=72	=72	=72	=72	=72	=72	=72	=72	=72
1r	.	1r	.	2.CM	.	guitar	.	109.315	C:maj
.	.	.	.	4B-M	.	guitar	.	110.439	B-:maj
=73	=73	=73	=73	=73	=73	=73	=73	=73	=73
1r	.	1r	.	2A-M	.	guitar	.	110.813	A-:1
.	.	.	.	2E-M	.	guitar	.	111.562	E-:1
=74	=74	=74	=74	=74	=74	=74	=74	=74	=74
1r	.	1r	.	2Cm	.	guitar	.	112.312	C:1
.	.	.	.	4Gm	.	guitar	.	113.061	G:1
.	.	.	.	4Fm	.	guitar	.	113.435	F:1
=75	=75	=75	=75	=75	=75	=75	=75	=75	=75
1r	.	1r	.	1Cm	newline	guitar	.	113.81	C:1
=76	=76	=76	=76	=76	=76	=76	=76	=76	=76
1r	.	1r	.	1Cm	.	guitar	.	115.361	C:1
=77	=77	=77	=77	=77	=77	=77	=77	=77	=77
1r	.	1r	.	1Cm	.	guitar	.	116.913	C:1
=78	=78	=78	=78	=78	=78	=78	=78	=78	=78
1r	.	1r	.	1CM	.	guitar	.	118.465	C:maj
=79	=79	=79	=79	=79	=79	=79	=79	=79	=79
*>Letter>B2	*>Letter>B2	*>Letter>B2	*>Letter>B2	*>Letter>B2	*>Letter>B2	*>Letter>B2	*>Letter>B2	*>Letter>B2	*>Letter>B2
*>Label>Verse	*>Label>Verse	*>Label>Verse	*>Label>Verse	*>Label>Verse	*>Label>Verse	*>Label>Verse	*>Label>Verse	*>Label>Verse	*>Label>Verse
8r	.	8r	.	1Fm	newline	voice	.	120.016	F:1
8cc	You're	8aa-	You're	.	.	.	.	.	.
8cc	the	8aa-	the	.	.	.	.	.	.
[8ee-	right	[8aa-	right	.	.	.	.	.	.
8ee-]	_	8aa-]	_	.	.	.	.	.	.
8cc	kind	8ee-	kind	.	.	.	.	.	.
8b-	of	8dd-	of	.	.	.	.	.	.
[8b-	sin-	[8dd-	sin-	.	.	.	(B	.	.
=80	=80	=80	=80	=80	=80	=80	=80	=80	=80
8b-]	_	8dd-]	_	1D-M	.	voice	.	121.58	D-:1
8a-	-ner	8cc	-ner	.	.	.	b)	.	.
4r	.	4r	.	.	.	.	.	.	.
8r	.	2r	.	.	.	.	.	.	.
8f	to	.	.	.	.	.	.	.	.
8a-	re-	.	.	.	.	.	.	.	.
[8b-	-lease	.	.	.	.	.	.	.	.
=81	=81	=81	=81	=81	=81	=81	=81	=81	=81
8b-]	_	1r	.	1B-m	.	voice	.	123.144	B-:1
4b-	my	.	.	.	.	.	.	.	.
[8b-	in-	.	.	.	.	.	(B	.	.
8b-]	_	.	.	.	.	.	.	.	.
4a-	-ner	.	.	.	.	.	b)	.	.
[8b-	fan-	.	.	.	.	.	.	.	.
=82	=82	=82	=82	=82	=82	=82	=82	=82	=82
8b-]	_	1r	.	4Cm	.	voice	.	124.708	C:1
4cc	-ta-	.	.	.	.	.	(c	.	.
.	.	.	.	4B-m	.	voice	.	125.099	B-:1
[8cc	-sy	.	.	.	.	.	C)	.	.
4.cc]	_	.	.	4A-M	.	voice	.	125.49	A-:1
.	.	.	.	4G-M	.	voice	.	125.881	G-:1
8r	.	.	.	.	.	.	.	.	.
=83	=83	=83	=83	=83	=83	=83	=83	=83	=83
8r	.	8r	.	1Fm	newline	voice	.	126.272	F:1
8cc	The	8aa-	The	.	.	.	.	.	.
8cc	in-	8aa-	in-	.	.	.	.	.	.
[8ee-	-vin-	[8aa-	-vin-	.	.	.	.	.	.
8ee-]	_	8aa-]	_	.	.	.	.	.	.
8cc	-ci-	8ee-	-ci-	.	.	.	.	.	.
8b-	-ble	8dd-	-ble	.	.	.	.	.	.
[8b-	win-	[8dd-	win-	.	.	.	(B	.	.
=84	=84	=84	=84	=84	=84	=84	=84	=84	=84
8b-]	_	8dd-]	_	1D-M	.	voice	.	127.802	D-:1
8a-	-ner	8cc	-ner	.	.	.	b)	.	.
4r	.	4r	.	.	.	.	.	.	.
8r	.	2r	.	.	.	.	.	.	.
8f	and	.	.	.	.	.	.	.	.
8a-	you	.	.	.	.	.	.	.	.
[8b-	know	.	.	.	.	.	.	.	.
=85	=85	=85	=85	=85	=85	=85	=85	=85	=85
8b-]	_	1r	.	1B-m	.	voice	.	129.332	B-:1
4b-	that	.	.	.	.	.	.	.	.
[8b-	you	.	.	.	.	.	.	.	.
8b-]	_	.	.	.	.	.	.	.	.
8a-	were	.	.	.	.	.	.	.	.
8r	.	.	.	.	.	.	.	.	.
[8b-	born	.	.	.	.	.	.	.	.
=86	=86	=86	=86	=86	=86	=86	=86	=86	=86
8b-]	_	1r	.	1Cm	.	voice	.	130.862	C:5
4cc	to	.	.	.	.	.	(c	.	.
[8cc	be	.	.	.	.	.	C)	.	.
2cc_	_	.	.	.	.	.	.	.	.
=87	=87	=87	=87	=87	=87	=87	=87	=87	=87
2cc]	_	1r	.	1CM	.	voice	.	132.392	C:maj
4r	.	.	.	.	.	.	.	.	.
8e-	You're	.	.	.	.	.	.	.	.
[8f	a	.	.	.	.	.	.	.	.
=88	=88	=88	=88	=88	=88	=88	=88	=88	=88
*>Letter>C3	*>Letter>C3	*>Letter>C3	*>Letter>C3	*>Letter>C3	*>Letter>C3	*>Letter>C3	*>Letter>C3	*>Letter>C3	*>Letter>C3
*>Label>Chorus	*>Label>Chorus	*>Label>Chorus	*>Label>Chorus	*>Label>Chorus	*>Label>Chorus	*>Label>Chorus	*>Label>Chorus	*>Label>Chorus	*>Label>Chorus
8f]	_	1r	.	1N	newline	voice	.	133.922	N.C.
8r	.	.	.	.	.	.	.	.	.
4a-	heart-	.	.	.	.	.	.	.	.
8g	-break-	.	.	.	.	.	(D	.	.
4.f	-er	.	.	.	.	.	d)	.	.
=89	=89	=89	=89	=89	=89	=89	=89	=89	=89
4r	.	1r	.	1N	.	voice	.	135.53	N.C.
4a-	Dream	.	.	.	.	.	.	.	.
8g	ma-	.	.	.	.	.	(D	.	.
4.f	-ker	.	.	.	.	.	d)	.	.
=90	=90	=90	=90	=90	=90	=90	=90	=90	=90
4r	.	1r	.	1N	.	voice	.	137.138	N.C.
4a-	Love	.	.	.	.	.	.	.	.
8g	ta-	.	.	.	.	.	(D	.	.
8f	-ker	.	.	.	.	.	d)	.	.
8f	Don't	.	.	.	.	.	.	.	.
8f	you	.	.	.	.	.	.	.	.
=91	=91	=91	=91	=91	=91	=91	=91	=91	=91
8e-	mess	1r	.	1N	.	voice	.	138.746	N.C.
8f	a-	.	.	.	.	.	.	.	.
8f	-round	.	.	.	.	.	.	.	.
8f	with	.	.	.	.	.	.	.	.
4f	me	.	.	.	.	.	C	.	.
8e-	You're	.	.	.	.	.	.	.	.
[8f	a	.	.	.	.	.	.	.	.
=92	=92	=92	=92	=92	=92	=92	=92	=92	=92
8f]	_	1r	.	2.Fm	newline	voice	.	140.353	F:min
8r	.	.	.	.	.	.	.	.	.
4a-	heart-	.	.	.	.	.	.	.	.
8g	-break-	.	.	.	.	.	(D	.	.
4.f	-er	.	.	.	.	.	d)	.	.
.	.	.	.	4Gm	.	voice	.	141.492	G:min
=93	=93	=93	=93	=93	=93	=93	=93	=93	=93
4r	.	1r	.	1A-M	.	voice	.	141.872	A-:maj
4a-	Dream	.	.	.	.	.	.	.	.
8g	ma-	.	.	.	.	.	(D	.	.
4.f	-ker	.	.	.	.	.	d)	.	.
=94	=94	=94	=94	=94	=94	=94	=94	=94	=94
4r	.	1r	.	2.B-M	.	voice	.	143.39	B-:maj
4a-	Love	.	.	.	.	.	.	.	.
8g	ta-	.	.	.	.	.	(D	.	.
8f	-ker	.	.	.	.	.	d)	.	.
8f	Don't	.	.	4CM	.	voice	.	144.529	C:maj
8f	you	.	.	.	.	.	.	.	.
=95	=95	=95	=95	=95	=95	=95	=95	=95	=95
8e-	mess	1r	.	2.D-M	.	voice	.	144.908	D-:maj
8f	a-	.	.	.	.	.	.	.	.
8f	-round	.	.	.	.	.	.	.	.
8f	with	.	.	.	.	.	.	.	.
4f	me	.	.	.	.	.	C	.	.
8e-	You're	.	.	4CM	.	voice	.	146.047	C:maj
[8f	a	.	.	.	.	.	.	.	.
=96	=96	=96	=96	=96	=96	=96	=96	=96	=96
8f]	_	4r	.	1Fm	newline	voice	.	146.427	F:min
8r	.	.	.	.	.	.	.	.	.
4a-	heart-	4cc	heart-	.	.	.	.	.	.
8g	-break-	8b-	-break-	.	.	.	(D	.	.
4.f	-er	4.a-	-er	.	.	.	d)	.	.
=97	=97	=97	=97	=97	=97	=97	=97	=97	=97
4r	.	4r	.	1A-M	.	voice	.	147.948	A-:maj
4a-	Dream	4cc	Dream	.	.	.	.	.	.
8g	ma-	8b-	ma-	.	.	.	(D	.	.
4.f	-ker	4.a-	-ker	.	.	.	d)	.	.
=98	=98	=98	=98	=98	=98	=98	=98	=98	=98
4r	.	1r	.	1B-M	.	voice	.	149.468	B-:maj
4a-	Love	.	.	.	.	.	.	.	.
8g	ta-	.	.	.	.	.	(D	.	.
8f	-ker	.	.	.	.	.	d)	.	.
8f	Don't	.	.	.	.	.	.	.	.
8f	you	.	.	.	.	.	.	.	.
=99	=99	=99	=99	=99	=99	=99	=99	=99	=99
8e-	mess	1r	.	2.D-M	.	voice	.	150.989	D-:maj
8f	a-	.	.	.	.	.	.	.	.
8f	-round	.	.	.	.	.	.	.	.
8f	with	.	.	.	.	.	.	.	.
4f	me	.	.	.	.	.	C	.	.
8e-	You're	.	.	4CM	.	voice	.	152.13	C:maj
[8f	a	.	.	.	.	.	.	.	.
=100	=100	=100	=100	=100	=100	=100	=100	=100	=100
8f]	_	4r	.	1Fm	newline	voice	.	152.51	F:min
8r	.	.	.	.	.	.	.	.	.
4a-	heart-	4cc	heart-	.	.	.	.	.	.
8g	-break-	8b-	-break-	.	.	.	(D	.	.
4.f	-er	4.a-	-er	.	.	.	d)	.	.
=101	=101	=101	=101	=101	=101	=101	=101	=101	=101
4r	.	4r	.	1A-M	.	voice	.	154.025	A-:maj
4a-	Dream	4cc	Dream	.	.	.	.	.	.
8g	ma-	8b-	ma-	.	.	.	(D	.	.
4.f	-ker	4.a-	-ker	.	.	.	d)	.	.
=102	=102	=102	=102	=102	=102	=102	=102	=102	=102
4r	.	1r	.	1B-M	.	voice	.	155.54	B-:maj
4a-	Love	.	.	.	.	.	.	.	.
8g	ta-	.	.	.	.	.	(D	.	.
8f	-ker	.	.	.	.	.	d)	.	.
8ff	Heart-	.	.	.	.	.	.	.	.
[8ee-	-break-	.	.	.	.	.	(D	.	.
=103	=103	=103	=103	=103	=103	=103	=103	=103	=103
8ee-]	_	1r	.	2.D-M	.	voice	.	157.055	D-:maj
4.ff	-er	.	.	.	.	.	d)	.	.
2r	.	.	.	.	.	.	.	.	.
.	.	.	.	4CM	.	voice	.	158.191	C:maj
=104	=104	=104	=104	=104	=104	=104	=104	=104	=104
*>Letter>C4	*>Letter>C4	*>Letter>C4	*>Letter>C4	*>Letter>C4	*>Letter>C4	*>Letter>C4	*>Letter>C4	*>Letter>C4	*>Letter>C4
*>Label>Solo	*>Label>Solo	*>Label>Solo	*>Label>Solo	*>Label>Solo	*>Label>Solo	*>Label>Solo	*>Label>Solo	*>Label>Solo	*>Label>Solo
1r	.	1r	.	1Fm	newline	guitar	.	158.57	F:min
=105	=105	=105	=105	=105	=105	=105	=105	=105	=105
1r	.	1r	.	1A-M	.	guitar	.	160.081	A-:maj
=106	=106	=106	=106	=106	=106	=106	=106	=106	=106
1r	.	1r	.	1B-M	.	guitar	.	161.592	B-:maj
=107	=107	=107	=107	=107	=107	=107	=107	=107	=107
1r	.	1r	.	2.D-M	.	guitar	.	163.104	D-:maj
.	.	.	.	4CM	.	guitar	.	164.237	C:maj
=108	=108	=108	=108	=108	=108	=108	=108	=108	=108
1r	.	1r	.	1Fm	newline	guitar	.	164.615	F:min
=109	=109	=109	=109	=109	=109	=109	=109	=109	=109
1r	.	1r	.	1A-M	.	guitar	.	166.126	A-:maj
=110	=110	=110	=110	=110	=110	=110	=110	=110	=110
1r	.	1r	.	1B-M	.	guitar	.	167.638	B-:maj
=111	=111	=111	=111	=111	=111	=111	=111	=111	=111
1r	.	1r	.	2.D-M	.	guitar	.	169.149	D-:maj
.	.	.	.	4CM	.	guitar	.	170.282	C:maj
=112	=112	=112	=112	=112	=112	=112	=112	=112	=112
1r	.	1r	.	1Fm	newline	guitar	.	170.66	F:min
=113	=113	=113	=113	=113	=113	=113	=113	=113	=113
1r	.	1r	.	1A-M	.	guitar	.	172.185	A-:maj
=114	=114	=114	=114	=114	=114	=114	=114	=114	=114
1r	.	1r	.	1B-M	.	guitar	.	173.71	B-:maj
=115	=115	=115	=115	=115	=115	=115	=115	=115	=115
1r	.	1r	.	2.D-M	.	guitar	.	175.235	D-:maj
.	.	.	.	4CM	.	guitar	.	176.379	C:maj
=116	=116	=116	=116	=116	=116	=116	=116	=116	=116
1r	.	1r	.	1Fm	newline	guitar	.	176.76	F:min
=117	=117	=117	=117	=117	=117	=117	=117	=117	=117
1r	.	1r	.	1A-M	.	guitar	.	178.282	A-:maj
=118	=118	=118	=118	=118	=118	=118	=118	=118	=118
1r	.	1r	.	1B-M	.	guitar	.	179.805	B-:maj
=119	=119	=119	=119	=119	=119	=119	=119	=119	=119
1r	.	1r	.	2.D-M	.	guitar	.	181.327	D-:maj
.	.	.	.	4CM	.	guitar	.	182.469	C:maj
=120	=120	=120	=120	=120	=120	=120	=120	=120	=120
1r	.	1r	.	1Fm	newline	guitar	.	182.849	F:min
=121	=121	=121	=121	=121	=121	=121	=121	=121	=121
1r	.	1r	.	1A-M	.	guitar	.	184.344	A-:maj
=122	=122	=122	=122	=122	=122	=122	=122	=122	=122
1r	.	1r	.	1B-M	.	guitar	.	185.838	B-:maj
=123	=123	=123	=123	=123	=123	=123	=123	=123	=123
1r	.	1r	.	2.D-M	.	guitar	.	187.332	D-:maj
.	.	.	.	4CM	.	guitar	.	188.453	C:maj
=124	=124	=124	=124	=124	=124	=124	=124	=124	=124
1r	.	1r	.	1Fm	newline	guitar	.	188.826	F:min
=125	=125	=125	=125	=125	=125	=125	=125	=125	=125
1r	.	1r	.	1A-M	.	guitar	.	190.356	A-:maj
=126	=126	=126	=126	=126	=126	=126	=126	=126	=126
1r	.	1r	.	1B-M	.	guitar	.	191.886	B-:maj
=127	=127	=127	=127	=127	=127	=127	=127	=127	=127
1r	.	1r	.	2.D-M	.	guitar	.	193.416	D-:maj
.	.	.	.	4CM	.	guitar	.	194.564	C:maj
=128	=128	=128	=128	=128	=128	=128	=128	=128	=128
*>Letter>D	*>Letter>D	*>Letter>D	*>Letter>D	*>Letter>D	*>Letter>D	*>Letter>D	*>Letter>D	*>Letter>D	*>Letter>D
*>Label>Outro	*>Label>Outro	*>Label>Outro	*>Label>Outro	*>Label>Outro	*>Label>Outro	*>Label>Outro	*>Label>Outro	*>Label>Outro	*>Label>Outro
1r	.	1r	.	1Fm	newline	guitar	.	194.946	F:min
=129	=129	=129	=129	=129	=129	=129	=129	=129	=129
1r	.	1r	.	1Fm	.	guitar	.	196.464	F:min
r;	.	r;	.	1r;	.	r	.	205.952	N.C.
r;	.	r;	.	1r;	.	r	.	207.275	N.C.
*-	*-	*-	*-	*-	*-	*-	*-	*-	*-
!!!BillboardChartDate: 1980/03/08, 1979/12/22
!!!BillboardPeak: 23, 23
!!!BillboardWeeksOnChart: 18, 18
!!!COC: Pat Benatar
!!!ENC: Nathaniel Condit-Schultz
!!!EST: Awating manual error checking and editing.
!!!OTL: Heartbreaker
!!!RDF**chordsym: original McGill chord annotation + (implied pitch class set, with bass pitch in first position)
!!!RDF**harmony: **recip + pitch class of root + harmonic quality
!!!RDF**leadinstrument: original McGill primary instrumentation annotation
!!!RDF**phrase: newline = linebreak in original McGill transcription
!!!RDF**timestamp: McGill audio timestamp in seconds
!!!RDT: 2017/01/12/
!!!SampleActualRank: 24, 76
!!!SampleID#: 1053, 1204
!!!SampleTargetRank: 22, 75
